images/zrx.svg

<svg height="250" viewBox="0 0 250 250" width="250" xmlns="http://www.w3.org/2000/svg"><path d="m250 125c0 69.035156-55.964844 125-125 125s-125-55.964844-125-125 55.964844-125 125-125 125 55.964844 125 125zm0 0" fill="#302c2c"/><path d="m121.0625 210.9375c-2.109375-.21875-4.21875-.414062-6.328125-.664062-11.339844-1.351563-22.292969-4.976563-32.203125-10.65625-.148438-.078126-.28125-.195313-.570312-.390626 17.234374-12.890624 34.390624-25.703124 51.640624-38.59375l5.195313 5.054688c2.890625 2.828125 5.796875 5.625 8.632813 8.492188.703124.703124 1.210937.695312 2.03125.273437 8.589843-4.289063 15.929687-10.71875 21.3125-18.671875l.835937-1.234375c.242187.28125.46875.507813.65625.757813 5.992187 7.984374 11.976563 15.96875 17.992187 23.929687.523438.6875.460938 1.09375-.09375 1.71875-13.929687 15.828125-31.242187 25.578125-52.109374 28.914063-2.625.421874-5.289063.578124-7.9375.867187-.351563.039063-.703126.132813-1.046876.203125zm7.578125-171.875c1.453125.148438 2.914063.304688 4.375.4375 12.3125 1.171875 23.828125 4.820312 34.554687 10.9375.15625.09375.289063.203125.546876.390625l-52.484376 37.648437c-.695312-.65625-1.367187-1.28125-2.03125-1.929687-3.6875-3.59375-7.390624-7.179687-11.054687-10.804687-.585937-.578126-1.03125-.640626-1.765625-.273438-8.742188 4.316406-16.203125 10.84375-21.640625 18.9375l-.78125 1.171875-19.28125-25.6875c1.945313-2.0625 3.742187-4.117187 5.6875-6.015625 12.679687-12.367188 27.734375-20.234375 45.179687-23.398438 3.359376-.609374 6.789063-.8125 10.1875-1.210937.382813-.039063.765626-.132813 1.140626-.203125zm-78.1875 43.234375 39.023437 51.15625-7.875 8.078125c-1.960937 2.007812-3.90625 4.039062-5.90625 6.015625-.5625.5625-.585937.992187-.242187 1.679687 4.308594 8.746094 10.835937 16.207032 18.929687 21.640626.273438.171874.546876.351562.804688.546874.046875.03125.070312.109376.210938.375l-25.476563 19.109376c-15.234375-13.117188-25.117187-29.28125-29.085937-48.882813-4.25-20.984375-.804688-40.8125 9.625-59.71875zm110.742187 34.140625 7.171876-7.445312c2-2.078126 3.96875-4.179688 6.015624-6.203126.640626-.632812.632813-1.109374.257813-1.859374-4.335937-8.851563-10.941406-16.390626-19.140625-21.859376-.289062-.195312-.570312-.40625-1.0625-.757812l25.617188-19.21875c14.507812 12.421875 24.140624 27.734375 28.5625 46.210938 5.523437 23.0625.601562 45.875-8.960938 61.9375zm0 0" fill="#fff" fill-rule="evenodd"/></svg>

<svg xmlns="http://www.w3.org/2000/svg" xmlns:xlink="http://www.w3.org/1999/xlink" width="250px" height="250px" viewBox="0 0 250 250" version="1.1">
<g id="surface1">
<path style=" stroke:none;fill-rule:nonzero;fill:rgb(18.82353%,17.254902%,17.254902%);fill-opacity:1;" d="M 250 125 C 250 194.035156 194.035156 250 125 250 C 55.964844 250 0 194.035156 0 125 C 0 55.964844 55.964844 0 125 0 C 194.035156 0 250 55.964844 250 125 Z M 250 125 "/>
<path style=" stroke:none;fill-rule:evenodd;fill:rgb(100%,100%,100%);fill-opacity:1;" d="M 121.0625 210.9375 C 118.953125 210.71875 116.84375 210.523438 114.734375 210.273438 C 103.394531 208.921875 92.441406 205.296875 82.53125 199.617188 C 82.382812 199.539062 82.25 199.421875 81.960938 199.226562 C 99.195312 186.335938 116.351562 173.523438 133.601562 160.632812 L 138.796875 165.6875 C 141.6875 168.515625 144.59375 171.3125 147.429688 174.179688 C 148.132812 174.882812 148.640625 174.875 149.460938 174.453125 C 158.050781 170.164062 165.390625 163.734375 170.773438 155.78125 L 171.609375 154.546875 C 171.851562 154.828125 172.078125 155.054688 172.265625 155.304688 C 178.257812 163.289062 184.242188 171.273438 190.257812 179.234375 C 190.78125 179.921875 190.71875 180.328125 190.164062 180.953125 C 176.234375 196.78125 158.921875 206.53125 138.054688 209.867188 C 135.429688 210.289062 132.765625 210.445312 130.117188 210.734375 C 129.765625 210.773438 129.414062 210.867188 129.070312 210.9375 Z M 128.640625 39.0625 C 130.09375 39.210938 131.554688 39.367188 133.015625 39.5 C 145.328125 40.671875 156.84375 44.320312 167.570312 50.4375 C 167.726562 50.53125 167.859375 50.640625 168.117188 50.828125 L 115.632812 88.476562 C 114.9375 87.820312 114.265625 87.195312 113.601562 86.546875 C 109.914062 82.953125 106.210938 79.367188 102.546875 75.742188 C 101.960938 75.164062 101.515625 75.101562 100.78125 75.46875 C 92.039062 79.785156 84.578125 86.3125 79.140625 94.40625 L 78.359375 95.578125 L 59.078125 69.890625 C 61.023438 67.828125 62.820312 65.773438 64.765625 63.875 C 77.445312 51.507812 92.5 43.640625 109.945312 40.476562 C 113.304688 39.867188 116.734375 39.664062 120.132812 39.265625 C 120.515625 39.226562 120.898438 39.132812 121.273438 39.0625 Z M 50.453125 82.296875 L 89.476562 133.453125 L 81.601562 141.53125 C 79.640625 143.539062 77.695312 145.570312 75.695312 147.546875 C 75.132812 148.109375 75.109375 148.539062 75.453125 149.226562 C 79.761719 157.972656 86.289062 165.433594 94.382812 170.867188 C 94.65625 171.039062 94.929688 171.21875 95.1875 171.414062 C 95.234375 171.445312 95.257812 171.523438 95.398438 171.789062 L 69.921875 190.898438 C 54.6875 177.78125 44.804688 161.617188 40.835938 142.015625 C 36.585938 121.03125 40.03125 101.203125 50.460938 82.296875 Z M 161.195312 116.4375 L 168.367188 108.992188 C 170.367188 106.914062 172.335938 104.8125 174.382812 102.789062 C 175.023438 102.15625 175.015625 101.679688 174.640625 100.929688 C 170.304688 92.078125 163.699219 84.539062 155.5 79.070312 C 155.210938 78.875 154.929688 78.664062 154.4375 78.3125 L 180.054688 59.09375 C 194.5625 71.515625 204.195312 86.828125 208.617188 105.304688 C 214.140625 128.367188 209.21875 151.179688 199.65625 167.242188 Z M 161.195312 116.4375 "/>
</g>
</svg>
